templates/main/source/images/block-1-6.svg

<?xml version="1.0" encoding="utf-8"?>
<svg width="49px" height="49px" viewbox="0 0 49 49" version="1.1" xmlns:xlink="http://www.w3.org/1999/xlink" xmlns="http://www.w3.org/2000/svg">
  <g id="appliances-2" transform="translate(0.5 0.5)">
    <path d="M18 36C27.9411 36 36 27.9411 36 18C36 8.05887 27.9411 0 18 0C8.05887 0 0 8.05887 0 18C0 27.9411 8.05887 36 18 36Z" transform="translate(5.25 6)" id="Oval" fill="#8C0014" fill-opacity="0.14901961" fill-rule="evenodd" stroke="none" />
    <path d="M37.4788 21.0425L45.7939 21.0425C47.0101 21.0425 48 22.032 48 23.2485L48 45.7939C48 47.0101 47.0101 48 45.7939 48L27.7573 48C26.5411 48 25.5513 47.0105 25.5513 45.7939L25.5513 35.2244L22.4484 35.2244L22.4484 45.7939C22.4484 47.0101 21.4589 48 20.2423 48L2.20605 48C0.989868 48 0 47.0101 0 45.7939L0 3.70898C0 1.66406 1.66406 0 3.70898 0L18.7394 0C20.7847 0 22.4487 1.66406 22.4487 3.70898L22.4487 6.01208L27.0546 6.01208L27.0546 2.20605C27.0546 0.989868 28.0441 0 29.2606 0L44.291 0C45.5072 0 46.4971 0.989868 46.4971 2.20605L46.4971 11.2244C46.4971 12.4409 45.5072 13.4304 44.291 13.4304L37.4788 13.4304L37.4788 21.0425ZM20.2427 46.5938C20.6836 46.5938 21.0425 46.2349 21.0425 45.7939L21.0421 45.7939L21.0421 28.4604L20.2427 28.4604C19.8545 28.4604 19.5396 28.1459 19.5396 27.7573C19.5396 27.3691 19.8545 27.0542 20.2427 27.0542L21.0421 27.0542L21.0421 3.70898C21.0421 2.43933 20.0094 1.40625 18.7394 1.40625L3.70898 1.40625C2.43933 1.40625 1.40625 2.43933 1.40625 3.70898L1.40625 17.2848L2.95752 17.2848C3.75989 17.2848 4.41211 17.9374 4.41211 18.7397L4.41211 24.0004C4.41211 24.8024 3.75989 25.455 2.95752 25.455L1.40625 25.455L1.40625 27.0546L17.2365 27.0546C17.6246 27.0546 17.9396 27.3695 17.9396 27.7577C17.9396 28.1459 17.6246 28.4608 17.2365 28.4608L1.40625 28.4608L1.40625 30.0604L2.95752 30.0604C3.75989 30.0604 4.41211 30.713 4.41211 31.515L4.41211 36.7756C4.41211 37.578 3.75989 38.2302 2.95752 38.2302L1.40625 38.2302L1.40625 45.7939C1.40625 46.2349 1.76514 46.5938 2.20605 46.5938L20.2427 46.5938ZM29.2606 1.40625C28.8197 1.40625 28.4608 1.76514 28.4608 2.20605L28.4608 11.2244C28.4608 11.6653 28.8193 12.0242 29.2606 12.0242L40.5817 12.0242L40.5817 1.40625L29.2606 1.40625ZM45.0908 4.50916L45.0908 2.20605C45.0908 1.76514 44.7319 1.40625 44.2906 1.40625L41.9879 1.40625L41.9879 4.50916L45.0908 4.50916ZM38.2789 10.4242L30.7635 10.4242C30.3754 10.4242 30.0604 10.1096 30.0604 9.72107L30.0604 3.70898C30.0604 3.3208 30.3754 3.00586 30.7635 3.00586L33.7698 3.00586C34.158 3.00586 34.4729 3.3208 34.4729 3.70898C34.4729 4.09753 34.158 4.41211 33.7698 4.41211L31.4667 4.41211L31.4667 9.01794L37.5758 9.01794L37.5758 4.41211L36.776 4.41211C36.3878 4.41211 36.0729 4.09753 36.0729 3.70898C36.0729 3.3208 36.3878 3.00586 36.776 3.00586L38.2789 3.00586C38.6671 3.00586 38.9821 3.3208 38.9821 3.70898L38.9821 9.72107C38.9821 10.1096 38.6671 10.4242 38.2789 10.4242ZM41.9879 12.0242L44.291 12.0242C44.7319 12.0242 45.0908 11.6653 45.0908 11.2244L45.0908 5.91541L41.9879 5.91541L41.9879 12.0242ZM9.72107 6.01208L12.7273 6.01208C13.5293 6.01208 14.1819 6.66467 14.1819 7.46667L14.1819 8.9696C14.1819 9.77197 13.5293 10.4242 12.7273 10.4242L9.72107 10.4242C8.91907 10.4242 8.26648 9.77197 8.26648 8.9696L8.26648 7.46667C8.26648 6.66467 8.91907 6.01208 9.72107 6.01208ZM12.7273 9.01794C12.754 9.01794 12.7756 8.99634 12.7756 8.9696L12.7756 7.46667C12.7756 7.43994 12.754 7.41833 12.7273 7.41833L9.72107 7.41833C9.69434 7.41833 9.67273 7.43994 9.67273 7.46667L9.67273 8.9696C9.67273 8.99634 9.69434 9.01794 9.72107 9.01794L12.7273 9.01794ZM22.4487 7.41833L22.4487 33.8181L25.5516 33.8181L25.5516 23.2485C25.5516 22.032 26.5411 21.0425 27.7577 21.0425L36.0725 21.0425L36.0725 13.4304L29.2606 13.4304C28.0441 13.4304 27.0546 12.4409 27.0546 11.2244L27.0546 7.41833L22.4487 7.41833ZM2.95752 18.691L1.40625 18.691L1.40625 24.0483L2.95752 24.0483C2.98425 24.0483 3.00586 24.0267 3.00586 24L3.00586 18.7394C3.00586 18.7126 2.98425 18.691 2.95752 18.691ZM46.5938 27.0546L46.5938 23.2485C46.5938 22.8073 46.2349 22.4487 45.7939 22.4487L27.7577 22.4487C27.3168 22.4487 26.9579 22.8073 26.9579 23.2485L26.9579 27.0546L28.5575 27.0546L28.5575 24.7515C28.5575 24.3633 28.8724 24.0483 29.2606 24.0483L33.7698 24.0483C34.158 24.0483 34.4729 24.3633 34.4729 24.7515L34.4729 27.0546L36.2234 27.0546C36.1263 26.8063 36.0725 26.5367 36.0725 26.2548C36.0725 25.0382 37.0624 24.0483 38.2789 24.0483C39.4951 24.0483 40.485 25.0382 40.485 26.2548C40.485 26.5367 40.4312 26.8063 40.3341 27.0546L46.5938 27.0546ZM42.0363 25.4546L44.2906 25.4546C44.6792 25.4546 44.9938 25.1396 44.9938 24.7515C44.9938 24.3633 44.6792 24.0483 44.2906 24.0483L42.0363 24.0483C41.6481 24.0483 41.3331 24.3633 41.3331 24.7515C41.3331 25.1396 41.6481 25.4546 42.0363 25.4546ZM29.9637 25.4546L29.9637 27.0546L33.0667 27.0546L33.0667 25.4546L29.9637 25.4546ZM38.2786 25.4546C37.8376 25.4546 37.4788 25.8135 37.4788 26.2544C37.4788 26.6957 37.8376 27.0542 38.2786 27.0542C38.7198 27.0542 39.0787 26.6957 39.0787 26.2544C39.0787 25.8135 38.7198 25.4546 38.2786 25.4546ZM27.7577 46.5938L45.7939 46.5938C46.2349 46.5938 46.5938 46.2349 46.5938 45.7939L46.5938 28.4608L26.9579 28.4608L26.9579 45.7939C26.9579 46.2349 27.3164 46.5938 27.7577 46.5938ZM30.0604 37.5271C30.0604 33.8243 33.0729 30.8119 36.7756 30.8119C40.4784 30.8119 43.4908 33.8243 43.4908 37.5271C43.4908 41.2299 40.4784 44.2423 36.7756 44.2423C33.0729 44.2423 30.0604 41.2299 30.0604 37.5271ZM2.95752 31.4667L1.40625 31.4667L1.40625 36.824L2.95752 36.824C2.98425 36.824 3.00586 36.8024 3.00586 36.7756L3.00586 31.515C3.00586 31.4883 2.98425 31.4667 2.95752 31.4667ZM31.4667 37.5271C31.4667 40.4546 33.8481 42.8361 36.7756 42.8361C39.7031 42.8361 42.0846 40.4546 42.0846 37.5271C42.0846 34.6 39.7031 32.2181 36.7756 32.2181C33.8485 32.2181 31.4667 34.5996 31.4667 37.5271ZM39.5112 36.0938C39.1351 36.1908 38.9088 36.5739 39.0059 36.95C39.0542 37.1375 39.0787 37.3315 39.0787 37.5271C39.0787 38.7971 38.0457 39.8302 36.7756 39.8302C35.506 39.8302 34.4729 38.7971 34.4729 37.5271C34.4729 36.2574 35.506 35.2244 36.7756 35.2244C36.9712 35.2244 37.1653 35.2485 37.3521 35.2969C37.7281 35.3936 38.1116 35.1672 38.2083 34.7911C38.3053 34.4154 38.079 34.032 37.7029 33.9349C37.4015 33.8573 37.0895 33.8181 36.7756 33.8181C34.7303 33.8181 33.0667 35.4818 33.0667 37.5271C33.0667 39.5724 34.7303 41.2365 36.7756 41.2365C38.8209 41.2365 40.485 39.5724 40.485 37.5271C40.485 37.2133 40.4454 36.9009 40.3678 36.5991C40.2708 36.223 39.887 35.9971 39.5112 36.0938Z" id="Combined-Shape" fill="#8C0014" fill-rule="evenodd" stroke="none" />
  </g>
</svg>

<svg width="49" height="49" xmlns:xlink="http://www.w3.org/1999/xlink" xmlns="http://www.w3.org/2000/svg"><g id="appliances-2" transform="translate(.5 .5)" fill="#8C0014" fill-rule="evenodd" stroke="none"><path d="M18 36c9.941 0 18-8.059 18-18S27.941 0 18 0 0 8.059 0 18s8.059 18 18 18z" transform="translate(5.25 6)" id="Oval" fill-opacity=".149"/><path d="M37.479 21.043h8.315c1.216 0 2.206.989 2.206 2.206v22.545C48 47.01 47.01 48 45.794 48H27.757a2.209 2.209 0 01-2.206-2.206v-10.57h-3.103v10.57c0 1.216-.99 2.206-2.206 2.206H2.206A2.209 2.209 0 010 45.794V3.709A3.713 3.713 0 013.709 0h15.03a3.713 3.713 0 013.71 3.709v2.303h4.606V2.206C27.055.99 28.045 0 29.26 0h15.03c1.216 0 2.206.99 2.206 2.206v9.018c0 1.217-.99 2.206-2.206 2.206h-6.812v7.613zm-17.236 25.55a.8.8 0 00.8-.8V28.46h-.8a.703.703 0 110-1.406h.8V3.71a2.305 2.305 0 00-2.304-2.303H3.71A2.305 2.305 0 001.406 3.71v13.576h1.552c.802 0 1.454.652 1.454 1.455V24c0 .802-.652 1.455-1.454 1.455H1.406v1.6h15.83a.703.703 0 010 1.406H1.406v1.6h1.552c.802 0 1.454.652 1.454 1.454v5.26c0 .803-.652 1.455-1.454 1.455H1.406v7.564a.8.8 0 00.8.8h18.037zM29.26 1.407a.8.8 0 00-.8.8v9.018a.8.8 0 00.8.8h11.32V1.406H29.26zM45.09 4.51V2.206a.8.8 0 00-.8-.8h-2.303V4.51h3.103zm-6.812 5.915h-7.516a.703.703 0 01-.703-.703V3.71c0-.388.315-.703.704-.703h3.006a.703.703 0 010 1.406h-2.303v4.606h6.109V4.412h-.8a.703.703 0 110-1.406h1.503c.388 0 .703.315.703.703v6.012a.703.703 0 01-.703.703zm3.709 1.6h2.303a.8.8 0 00.8-.8v-5.31h-3.103v6.11zM9.72 6.012h3.006c.802 0 1.455.653 1.455 1.455V8.97c0 .802-.653 1.454-1.455 1.454H9.721A1.456 1.456 0 018.266 8.97V7.467c0-.802.653-1.455 1.455-1.455zm3.006 3.006a.048.048 0 00.049-.048V7.467a.048.048 0 00-.049-.049H9.721a.048.048 0 00-.048.049V8.97c0 .026.021.048.048.048h3.006zm9.722-1.6v26.4h3.103v-10.57c0-1.216.99-2.206 2.206-2.206h8.314V13.43H29.26a2.208 2.208 0 01-2.206-2.206V7.418h-4.606zM2.958 18.691H1.406v5.357h1.552A.048.048 0 003.006 24v-5.26a.048.048 0 00-.048-.049zm43.636 8.364v-3.806a.8.8 0 00-.8-.8H27.758a.8.8 0 00-.8.8v3.806h1.6v-2.303c0-.389.314-.704.703-.704h4.509c.388 0 .703.315.703.704v2.303h1.75a2.21 2.21 0 012.056-3.006 2.209 2.209 0 012.055 3.006h6.26zm-4.558-1.6h2.255a.703.703 0 100-1.407h-2.255a.703.703 0 000 1.407zm-12.072 0v1.6h3.103v-1.6h-3.103zm8.315 0a.8.8 0 000 1.6.8.8 0 000-1.6zM27.758 46.594h18.036a.8.8 0 00.8-.8V28.46H26.958v17.333a.8.8 0 00.8.8zm2.302-9.067a6.723 6.723 0 016.716-6.715 6.723 6.723 0 016.715 6.715 6.723 6.723 0 01-6.715 6.715 6.723 6.723 0 01-6.716-6.715zm-27.102-6.06H1.406v5.357h1.552a.048.048 0 00.048-.048v-5.261a.048.048 0 00-.048-.048zm28.509 6.06a5.315 5.315 0 005.309 5.31 5.315 5.315 0 005.309-5.31 5.315 5.315 0 00-5.31-5.309 5.315 5.315 0 00-5.308 5.31zm8.044-1.433a.703.703 0 00-.505.856 2.306 2.306 0 01-2.23 2.88 2.306 2.306 0 01-2.303-2.303 2.305 2.305 0 012.88-2.23.703.703 0 00.35-1.362 3.713 3.713 0 00-4.636 3.592 3.713 3.713 0 003.709 3.71 3.714 3.714 0 003.592-4.638.704.704 0 00-.857-.505z" id="Combined-Shape"/></g></svg>
